Newaita-dark/apps/48/com.github.bitseater.weather.svg

<svg height="48pt" viewBox="0 0 48 48" width="48pt" xmlns="http://www.w3.org/2000/svg" xmlns:xlink="http://www.w3.org/1999/xlink"><linearGradient id="a" gradientTransform="matrix(.00572573 0 0 .093759 22.352864 20.158177)" gradientUnits="userSpaceOnUse" x1="254" x2="254" y1="233.5" y2="254.66667"><stop offset="0" stop-opacity=".27451"/><stop offset="1" stop-opacity="0"/></linearGradient><linearGradient id="b"><stop offset="0" stop-opacity=".313725"/><stop offset=".222222" stop-opacity=".27451"/><stop offset="1" stop-opacity="0"/></linearGradient><radialGradient id="c" cx="450.90894" cy="189.57936" gradientTransform="matrix(.00000026 -.117199 -.210958 -.00000015 64.304021 95.393002)" gradientUnits="userSpaceOnUse" r="21.166656" xlink:href="#b"/><radialGradient id="d" cx="450.90894" cy="189.57936" gradientTransform="matrix(-.00000026 .117199 .210958 .00000015 -16.674466 -11.291218)" gradientUnits="userSpaceOnUse" r="21.166656" xlink:href="#b"/><radialGradient id="e" cx="450.90894" cy="189.57936" gradientTransform="matrix(-.00000026 -.117199 .210958 -.00000015 -16.674466 95.393002)" gradientUnits="userSpaceOnUse" r="21.166656" xlink:href="#b"/><radialGradient id="f" cx="450.90894" cy="189.57936" gradientTransform="matrix(.00000026 .117199 -.210958 .00000015 64.304018 -11.291219)" gradientUnits="userSpaceOnUse" r="21.166656" xlink:href="#b"/><linearGradient id="g" gradientUnits="userSpaceOnUse" x1="23.814816" x2="23.814816" y1="42.05096669922" y2="4.34417271465"><stop offset="0" stop-color="#bdbdbd"/><stop offset="1" stop-color="#e0e0e0"/></linearGradient><linearGradient id="h" gradientUnits="userSpaceOnUse" x1="23.814816" x2="23.814816" y1="42.05096669922" y2="4.34417271465"><stop offset="0" stop-color="#5c6bc0"/><stop offset="1" stop-color="#7986cb"/></linearGradient><linearGradient id="i" gradientUnits="userSpaceOnUse" x1="23.814816" x2="23.814816" y1="42.05096669922" y2="4.34417296272"><stop offset="0" stop-color="#f44336"/><stop offset="1" stop-color="#ef5350"/></linearGradient><path d="m22.824219 42.050781h1.984375v1.984375h-1.984375zm0 0" fill="url(#a)"/><path d="m24.808594 42.050781h3.96875v-1.984375h-3.96875zm0 0" fill="url(#c)"/><path d="m22.824219 42.050781h-3.972657v1.984375h3.972657zm0 0" fill="url(#d)"/><path d="m22.824219 42.050781h-3.972657v-1.984375h3.972657zm0 0" fill="url(#e)"/><path d="m24.808594 42.050781h3.96875v1.984375h-3.96875zm0 0" fill="url(#f)"/><path d="m23.816406 4.34375c-2.75 0-4.964844 2.214844-4.964844 4.960938v12.097656c-3.539062 1.800781-5.953124 5.476562-5.953124 9.734375 0 6.046875 4.871093 10.914062 10.917968 10.914062s10.914063-4.867187 10.914063-10.914062c0-4.257813-2.414063-7.933594-5.953125-9.734375v-12.097656c0-2.746094-2.214844-4.960938-4.960938-4.960938zm0 0" fill="url(#g)"/><path d="m23.816406 6.328125c-1.652344 0-2.976562 1.328125-2.976562 2.976563v13.40625c-3.476563 1.21875-5.957032 4.523437-5.957032 8.425781 0 4.945312 3.984376 8.929687 8.933594 8.929687 4.945313 0 8.929688-3.984375 8.929688-8.929687 0-3.902344-2.480469-7.207031-5.953125-8.425781v-13.40625c0-1.648438-1.328125-2.976563-2.976563-2.976563zm0 0" fill="url(#h)"/><path d="m20.839844 19.238281v3.472657c-3.476563 1.21875-5.957032 4.523437-5.957032 8.425781 0 4.945312 3.984376 8.929687 8.933594 8.929687 4.945313 0 8.929688-3.984375 8.929688-8.929687 0-3.902344-2.480469-7.207031-5.953125-8.425781v-3.472657c-1.488281-1.5-4.464844-1.5-5.953125 0zm0 0" fill="url(#i)"/><path d="m23.816406 4.34375c-2.75 0-4.964844 2.214844-4.964844 4.960938v.371093c0-2.746093 2.214844-4.960937 4.964844-4.960937 2.746094 0 4.960938 2.214844 4.960938 4.960937v-.371093c0-2.746094-2.214844-4.960938-4.960938-4.960938zm-4.964844 17.058594c-3.539062 1.800781-5.953124 5.476562-5.953124 9.734375 0 .0625 0 .121093.003906.183593.070312-4.179687 2.464844-7.769531 5.949218-9.542968zm9.925782 0v.375c3.488281 1.773437 5.882812 5.363281 5.949218 9.542968.003907-.0625.003907-.121093.003907-.183593 0-4.257813-2.414063-7.933594-5.953125-9.734375zm0 0" fill="#fff" fill-opacity=".960784"/><path d="m12.902344 30.867188c0 .089843-.003906.179687-.003906.269531 0 6.046875 4.871093 10.914062 10.917968 10.914062s10.914063-4.867187 10.914063-10.914062c0-.089844-.003907-.179688-.003907-.269531-.152343 5.914062-4.960937 10.625-10.910156 10.625-5.953125 0-10.761718-4.710938-10.914062-10.625zm0 0" fill-opacity=".235294"/><path d="m960.065811 175.101391c-110.855557 0-200.138371 89.282814-200.138371 199.980905v487.669972c-142.663543 72.591494-239.977086 220.766322-239.977086 392.403477 0 243.756253 196.359204 439.957992 440.115457 439.957992s439.957991-196.201739 439.957991-439.957992c0-171.637155-97.313543-319.811983-239.977086-392.403477v-487.669972c0-110.698091-89.282814-199.980905-199.980905-199.980905zm0 0" fill="none" stroke="#212121" stroke-linecap="round" stroke-linejoin="round" stroke-width="11.338583" transform="scale(.0248071)"/><path d="m14.886719 31.367188c0 .070312-.003907.136718-.003907.207031 0 4.949219 3.984376 8.929687 8.933594 8.929687 4.945313 0 8.929688-3.980468 8.929688-8.929687 0-.070313 0-.136719-.003906-.207031-.113282 4.847656-4.050782 8.714843-8.925782 8.714843-4.878906 0-8.816406-3.867187-8.929687-8.714843zm0 0" fill="#fff7f7"/><path d="m23.816406 6.328125c-1.652344 0-2.976562 1.328125-2.976562 2.976563v.496093c0-1.648437 1.324218-2.976562 2.976562-2.976562 1.648438 0 2.976563 1.328125 2.976563 2.976562v-.496093c0-1.648438-1.328125-2.976563-2.976563-2.976563zm-2.976562 16.382813c-3.476563 1.21875-5.957032 4.523437-5.957032 8.425781 0 .082031.003907.167969.003907.253906.101562-3.796875 2.546875-6.988281 5.953125-8.183594zm5.953125 0v.496093c3.402343 1.195313 5.847656 4.386719 5.949219 8.183594 0-.085937.003906-.171875.003906-.253906 0-3.902344-2.480469-7.207031-5.953125-8.425781zm0 0" fill-opacity=".235294"/><path d="m960.065811 255.093753c-66.607814 0-119.988543 53.538195-119.988543 119.988543v540.420841c-140.144099 49.129167-240.134552 182.344793-240.134552 339.652608 0 199.351044 160.614585 359.96563 360.123095 359.96563 199.351044 0 359.965629-160.614586 359.965629-359.96563 0-157.307815-99.990452-290.523441-239.977086-339.652608v-540.420841c0-66.450348-53.538195-119.988543-119.988543-119.988543zm0 0" fill="none" stroke="#212121" stroke-linecap="round" stroke-linejoin="round" stroke-width="11.338583" transform="scale(.0248071)"/></svg>

<?xml version="1.0" encoding="UTF-8"?>
<svg xmlns="http://www.w3.org/2000/svg" xmlns:xlink="http://www.w3.org/1999/xlink" width="48pt" height="48pt" viewBox="0 0 48 48" version="1.1">
<defs>
<linearGradient id="linear0" gradientUnits="userSpaceOnUse" x1="254" y1="233.5" x2="254" y2="254.66667" gradientTransform="matrix(0.00572573,0,0,0.093759,22.352864,20.158177)">
<stop offset="0" style="stop-color:rgb(0%,0%,0%);stop-opacity:0.27451;"/>
<stop offset="1" style="stop-color:rgb(0%,0%,0%);stop-opacity:0;"/>
</linearGradient>
<radialGradient id="radial0" gradientUnits="userSpaceOnUse" cx="450.90894" cy="189.57936" fx="450.90894" fy="189.57936" r="21.166656" gradientTransform="matrix(0.000000261256,-0.117199,-0.210958,-0.000000152308,64.304021,95.393002)">
<stop offset="0" style="stop-color:rgb(0%,0%,0%);stop-opacity:0.313725;"/>
<stop offset="0.222222" style="stop-color:rgb(0%,0%,0%);stop-opacity:0.27451;"/>
<stop offset="1" style="stop-color:rgb(0%,0%,0%);stop-opacity:0;"/>
</radialGradient>
<radialGradient id="radial1" gradientUnits="userSpaceOnUse" cx="450.90894" cy="189.57936" fx="450.90894" fy="189.57936" r="21.166656" gradientTransform="matrix(-0.000000261256,0.117199,0.210958,0.000000152308,-16.674466,-11.291218)">
<stop offset="0" style="stop-color:rgb(0%,0%,0%);stop-opacity:0.313725;"/>
<stop offset="0.222222" style="stop-color:rgb(0%,0%,0%);stop-opacity:0.27451;"/>
<stop offset="1" style="stop-color:rgb(0%,0%,0%);stop-opacity:0;"/>
</radialGradient>
<radialGradient id="radial2" gradientUnits="userSpaceOnUse" cx="450.90894" cy="189.57936" fx="450.90894" fy="189.57936" r="21.166656" gradientTransform="matrix(-0.000000261256,-0.117199,0.210958,-0.000000152308,-16.674466,95.393002)">
<stop offset="0" style="stop-color:rgb(0%,0%,0%);stop-opacity:0.313725;"/>
<stop offset="0.222222" style="stop-color:rgb(0%,0%,0%);stop-opacity:0.27451;"/>
<stop offset="1" style="stop-color:rgb(0%,0%,0%);stop-opacity:0;"/>
</radialGradient>
<radialGradient id="radial3" gradientUnits="userSpaceOnUse" cx="450.90894" cy="189.57936" fx="450.90894" fy="189.57936" r="21.166656" gradientTransform="matrix(0.000000261256,0.117199,-0.210958,0.000000152308,64.304018,-11.291219)">
<stop offset="0" style="stop-color:rgb(0%,0%,0%);stop-opacity:0.313725;"/>
<stop offset="0.222222" style="stop-color:rgb(0%,0%,0%);stop-opacity:0.27451;"/>
<stop offset="1" style="stop-color:rgb(0%,0%,0%);stop-opacity:0;"/>
</radialGradient>
<linearGradient id="linear1" gradientUnits="userSpaceOnUse" x1="960" y1="1695.1182" x2="960" y2="175.11812" gradientTransform="matrix(0.0248071,0,0,0.0248071,0,0)">
<stop offset="0" style="stop-color:rgb(74.117647%,74.117647%,74.117647%);stop-opacity:1;"/>
<stop offset="1" style="stop-color:rgb(87.843137%,87.843137%,87.843137%);stop-opacity:1;"/>
</linearGradient>
<linearGradient id="linear2" gradientUnits="userSpaceOnUse" x1="960" y1="1695.1182" x2="960" y2="175.11812" gradientTransform="matrix(0.0248071,0,0,0.0248071,0,0)">
<stop offset="0" style="stop-color:rgb(36.078431%,41.960784%,75.294118%);stop-opacity:1;"/>
<stop offset="1" style="stop-color:rgb(47.45098%,52.54902%,79.607843%);stop-opacity:1;"/>
</linearGradient>
<linearGradient id="linear3" gradientUnits="userSpaceOnUse" x1="960" y1="1695.1182" x2="960" y2="175.11813" gradientTransform="matrix(0.0248071,0,0,0.0248071,0,0)">
<stop offset="0" style="stop-color:rgb(95.686275%,26.27451%,21.176471%);stop-opacity:1;"/>
<stop offset="1" style="stop-color:rgb(93.72549%,32.54902%,31.372549%);stop-opacity:1;"/>
</linearGradient>
</defs>
<g id="surface1">
<path style=" stroke:none;fill-rule:nonzero;fill:url(#linear0);" d="M 22.824219 42.050781 L 24.808594 42.050781 L 24.808594 44.035156 L 22.824219 44.035156 Z M 22.824219 42.050781 "/>
<path style=" stroke:none;fill-rule:nonzero;fill:url(#radial0);" d="M 24.808594 42.050781 L 28.777344 42.050781 L 28.777344 40.066406 L 24.808594 40.066406 Z M 24.808594 42.050781 "/>
<path style=" stroke:none;fill-rule:nonzero;fill:url(#radial1);" d="M 22.824219 42.050781 L 18.851562 42.050781 L 18.851562 44.035156 L 22.824219 44.035156 Z M 22.824219 42.050781 "/>
<path style=" stroke:none;fill-rule:nonzero;fill:url(#radial2);" d="M 22.824219 42.050781 L 18.851562 42.050781 L 18.851562 40.066406 L 22.824219 40.066406 Z M 22.824219 42.050781 "/>
<path style=" stroke:none;fill-rule:nonzero;fill:url(#radial3);" d="M 24.808594 42.050781 L 28.777344 42.050781 L 28.777344 44.035156 L 24.808594 44.035156 Z M 24.808594 42.050781 "/>
<path style=" stroke:none;fill-rule:nonzero;fill:url(#linear1);" d="M 23.816406 4.34375 C 21.066406 4.34375 18.851562 6.558594 18.851562 9.304688 L 18.851562 21.402344 C 15.3125 23.203125 12.898438 26.878906 12.898438 31.136719 C 12.898438 37.183594 17.769531 42.050781 23.816406 42.050781 C 29.863281 42.050781 34.730469 37.183594 34.730469 31.136719 C 34.730469 26.878906 32.316406 23.203125 28.777344 21.402344 L 28.777344 9.304688 C 28.777344 6.558594 26.5625 4.34375 23.816406 4.34375 Z M 23.816406 4.34375 "/>
<path style=" stroke:none;fill-rule:nonzero;fill:url(#linear2);" d="M 23.816406 6.328125 C 22.164062 6.328125 20.839844 7.65625 20.839844 9.304688 L 20.839844 22.710938 C 17.363281 23.929688 14.882812 27.234375 14.882812 31.136719 C 14.882812 36.082031 18.867188 40.066406 23.816406 40.066406 C 28.761719 40.066406 32.746094 36.082031 32.746094 31.136719 C 32.746094 27.234375 30.265625 23.929688 26.792969 22.710938 L 26.792969 9.304688 C 26.792969 7.65625 25.464844 6.328125 23.816406 6.328125 Z M 23.816406 6.328125 "/>
<path style=" stroke:none;fill-rule:nonzero;fill:url(#linear3);" d="M 20.839844 19.238281 L 20.839844 22.710938 C 17.363281 23.929688 14.882812 27.234375 14.882812 31.136719 C 14.882812 36.082031 18.867188 40.066406 23.816406 40.066406 C 28.761719 40.066406 32.746094 36.082031 32.746094 31.136719 C 32.746094 27.234375 30.265625 23.929688 26.792969 22.710938 L 26.792969 19.238281 C 25.304688 17.738281 22.328125 17.738281 20.839844 19.238281 Z M 20.839844 19.238281 "/>
<path style=" stroke:none;fill-rule:nonzero;fill:rgb(100%,100%,100%);fill-opacity:0.960784;" d="M 23.816406 4.34375 C 21.066406 4.34375 18.851562 6.558594 18.851562 9.304688 L 18.851562 9.675781 C 18.851562 6.929688 21.066406 4.714844 23.816406 4.714844 C 26.5625 4.714844 28.777344 6.929688 28.777344 9.675781 L 28.777344 9.304688 C 28.777344 6.558594 26.5625 4.34375 23.816406 4.34375 Z M 18.851562 21.402344 C 15.3125 23.203125 12.898438 26.878906 12.898438 31.136719 C 12.898438 31.199219 12.898438 31.257812 12.902344 31.320312 C 12.972656 27.140625 15.367188 23.550781 18.851562 21.777344 Z M 28.777344 21.402344 L 28.777344 21.777344 C 32.265625 23.550781 34.660156 27.140625 34.726562 31.320312 C 34.730469 31.257812 34.730469 31.199219 34.730469 31.136719 C 34.730469 26.878906 32.316406 23.203125 28.777344 21.402344 Z M 28.777344 21.402344 "/>
<path style=" stroke:none;fill-rule:nonzero;fill:rgb(0%,0%,0%);fill-opacity:0.235294;" d="M 12.902344 30.867188 C 12.902344 30.957031 12.898438 31.046875 12.898438 31.136719 C 12.898438 37.183594 17.769531 42.050781 23.816406 42.050781 C 29.863281 42.050781 34.730469 37.183594 34.730469 31.136719 C 34.730469 31.046875 34.726562 30.957031 34.726562 30.867188 C 34.574219 36.78125 29.765625 41.492188 23.816406 41.492188 C 17.863281 41.492188 13.054688 36.78125 12.902344 30.867188 Z M 12.902344 30.867188 "/>
<path style="fill:none;stroke-width:11.338583;stroke-linecap:round;stroke-linejoin:round;stroke:rgb(12.941176%,12.941176%,12.941176%);stroke-opacity:1;stroke-miterlimit:4;" d="M 960.065811 175.101391 C 849.210254 175.101391 759.92744 264.384205 759.92744 375.082296 L 759.92744 862.752268 C 617.263897 935.343762 519.950354 1083.51859 519.950354 1255.155745 C 519.950354 1498.911998 716.309558 1695.113737 960.065811 1695.113737 C 1203.822064 1695.113737 1400.023802 1498.911998 1400.023802 1255.155745 C 1400.023802 1083.51859 1302.710259 935.343762 1160.046716 862.752268 L 1160.046716 375.082296 C 1160.046716 264.384205 1070.763902 175.101391 960.065811 175.101391 Z M 960.065811 175.101391 " transform="matrix(0.0248071,0,0,0.0248071,0,0)"/>
<path style=" stroke:none;fill-rule:nonzero;fill:rgb(100%,96.862745%,96.862745%);fill-opacity:1;" d="M 14.886719 31.367188 C 14.886719 31.4375 14.882812 31.503906 14.882812 31.574219 C 14.882812 36.523438 18.867188 40.503906 23.816406 40.503906 C 28.761719 40.503906 32.746094 36.523438 32.746094 31.574219 C 32.746094 31.503906 32.746094 31.4375 32.742188 31.367188 C 32.628906 36.214844 28.691406 40.082031 23.816406 40.082031 C 18.9375 40.082031 15 36.214844 14.886719 31.367188 Z M 14.886719 31.367188 "/>
<path style=" stroke:none;fill-rule:nonzero;fill:rgb(0%,0%,0%);fill-opacity:0.235294;" d="M 23.816406 6.328125 C 22.164062 6.328125 20.839844 7.65625 20.839844 9.304688 L 20.839844 9.800781 C 20.839844 8.152344 22.164062 6.824219 23.816406 6.824219 C 25.464844 6.824219 26.792969 8.152344 26.792969 9.800781 L 26.792969 9.304688 C 26.792969 7.65625 25.464844 6.328125 23.816406 6.328125 Z M 20.839844 22.710938 C 17.363281 23.929688 14.882812 27.234375 14.882812 31.136719 C 14.882812 31.21875 14.886719 31.304688 14.886719 31.390625 C 14.988281 27.59375 17.433594 24.402344 20.839844 23.207031 Z M 26.792969 22.710938 L 26.792969 23.207031 C 30.195312 24.402344 32.640625 27.59375 32.742188 31.390625 C 32.742188 31.304688 32.746094 31.21875 32.746094 31.136719 C 32.746094 27.234375 30.265625 23.929688 26.792969 22.710938 Z M 26.792969 22.710938 "/>
<path style="fill:none;stroke-width:11.338583;stroke-linecap:round;stroke-linejoin:round;stroke:rgb(12.941176%,12.941176%,12.941176%);stroke-opacity:1;stroke-miterlimit:4;" d="M 960.065811 255.093753 C 893.457997 255.093753 840.077268 308.631948 840.077268 375.082296 L 840.077268 915.503137 C 699.933169 964.632304 599.942716 1097.84793 599.942716 1255.155745 C 599.942716 1454.506789 760.557301 1615.121375 960.065811 1615.121375 C 1159.416855 1615.121375 1320.03144 1454.506789 1320.03144 1255.155745 C 1320.03144 1097.84793 1220.040988 964.632304 1080.054354 915.503137 L 1080.054354 375.082296 C 1080.054354 308.631948 1026.516159 255.093753 960.065811 255.093753 Z M 960.065811 255.093753 " transform="matrix(0.0248071,0,0,0.0248071,0,0)"/>
</g>
</svg>
